X:262
T:Dos palomitas
Z:Jack Campin, http://www.campin.me.uk/
F:Jack Campin's Nine-Note Tunebook
% last edit 03-02-2013
S:http://quenaycharango.blogspot.com
G:Bolivian "huayno" dance
M:2/4
L:1/8
Q:1/4=108
K:F
F/FE/ FG|A/AG/ AA|d2 c2|A4 |\
A/dc/ AG|F/FE/ FG|A2 G2|F4:|
d2    c2|A4      |d2 c2|A4 |\
A/dc/ AG|F/FE/ FG|A2 G2|F4:|

